static/img/kroki/46141402afebbc3c3ce547531e80782f.svg

<?xml version="1.0" encoding="us-ascii" standalone="no"?><svg xmlns="http://www.w3.org/2000/svg" xmlns:xlink="http://www.w3.org/1999/xlink" contentStyleType="text/css" height="252px" preserveAspectRatio="none" style="width:371px;height:252px;" version="1.1" viewBox="0 0 371 252" width="371px" zoomAndPan="magnify"><defs/><g><!--class gcp_interconnect_attachment--><g id="elem_gcp_interconnect_attachment"><rect codeLine="22" fill="#3D176E" height="39.7891" id="gcp_interconnect_attachment" rx="2.5" ry="2.5" style="stroke:#000D19;stroke-width:0.5;" width="291" x="34" y="206.58"/><ellipse cx="49" cy="226.4745" fill="#ADD1B2" rx="11" ry="11" style="stroke:#181818;stroke-width:1.0;"/><path d="M51.9688,232.1152 Q51.3906,232.412 50.75,232.5527 Q50.1094,232.7089 49.4063,232.7089 Q46.9063,232.7089 45.5781,231.0683 Q44.2656,229.412 44.2656,226.287 Q44.2656,223.162 45.5781,221.5058 Q46.9063,219.8495 49.4063,219.8495 Q50.1094,219.8495 50.75,220.0058 Q51.4063,220.162 51.9688,220.4589 L51.9688,223.1777 Q51.3438,222.5995 50.75,222.3339 Q50.1563,222.0527 49.5313,222.0527 Q48.1875,222.0527 47.5,223.1308 Q46.8125,224.1933 46.8125,226.287 Q46.8125,228.3808 47.5,229.4589 Q48.1875,230.5214 49.5313,230.5214 Q50.1563,230.5214 50.75,230.2558 Q51.3438,229.9745 51.9688,229.3964 L51.9688,232.1152 Z " fill="#000000"/><text fill="#D9B8FF" font-family="Helvetica" font-size="17" lengthAdjust="spacing" textLength="249" x="68" y="232.3598">gcp_interconnect_attachment</text></g><!--class gcp_network--><g id="elem_gcp_network"><rect codeLine="24" fill="#3D176E" height="39.7891" id="gcp_network" rx="2.5" ry="2.5" style="stroke:#000D19;stroke-width:0.5;" width="149" x="7" y="7"/><ellipse cx="22" cy="26.8945" fill="#ADD1B2" rx="11" ry="11" style="stroke:#181818;stroke-width:1.0;"/><path d="M24.9688,32.5352 Q24.3906,32.832 23.75,32.9727 Q23.1094,33.1289 22.4063,33.1289 Q19.9063,33.1289 18.5781,31.4883 Q17.2656,29.832 17.2656,26.707 Q17.2656,23.582 18.5781,21.9258 Q19.9063,20.2695 22.4063,20.2695 Q23.1094,20.2695 23.75,20.4258 Q24.4063,20.582 24.9688,20.8789 L24.9688,23.5977 Q24.3438,23.0195 23.75,22.7539 Q23.1563,22.4727 22.5313,22.4727 Q21.1875,22.4727 20.5,23.5508 Q19.8125,24.6133 19.8125,26.707 Q19.8125,28.8008 20.5,29.8789 Q21.1875,30.9414 22.5313,30.9414 Q23.1563,30.9414 23.75,30.6758 Q24.3438,30.3945 24.9688,29.8164 L24.9688,32.5352 Z " fill="#000000"/><text fill="#D9B8FF" font-family="Helvetica" font-size="17" lengthAdjust="spacing" textLength="107" x="41" y="32.7798">gcp_network</text></g><!--class gcp_vpn_gateway--><g id="elem_gcp_vpn_gateway"><rect codeLine="26" fill="#3D176E" height="39.7891" id="gcp_vpn_gateway" rx="2.5" ry="2.5" style="stroke:#000D19;stroke-width:0.5;" width="191" x="84" y="106.79"/><ellipse cx="99" cy="126.6845" fill="#ADD1B2" rx="11" ry="11" style="stroke:#181818;stroke-width:1.0;"/><path d="M101.9688,132.3252 Q101.3906,132.622 100.75,132.7627 Q100.1094,132.9189 99.4063,132.9189 Q96.9063,132.9189 95.5781,131.2783 Q94.2656,129.622 94.2656,126.497 Q94.2656,123.372 95.5781,121.7158 Q96.9063,120.0595 99.4063,120.0595 Q100.1094,120.0595 100.75,120.2158 Q101.4063,120.372 101.9688,120.6689 L101.9688,123.3877 Q101.3438,122.8095 100.75,122.5439 Q100.1563,122.2627 99.5313,122.2627 Q98.1875,122.2627 97.5,123.3408 Q96.8125,124.4033 96.8125,126.497 Q96.8125,128.5908 97.5,129.6689 Q98.1875,130.7314 99.5313,130.7314 Q100.1563,130.7314 100.75,130.4658 Q101.3438,130.1845 101.9688,129.6064 L101.9688,132.3252 Z " fill="#000000"/><text fill="#D9B8FF" font-family="Helvetica" font-size="17" lengthAdjust="spacing" textLength="149" x="118" y="132.5698">gcp_vpn_gateway</text></g><!--class gcp_vpn_tunnel--><g id="elem_gcp_vpn_tunnel"><rect codeLine="28" fill="#3D176E" height="39.7891" id="gcp_vpn_tunnel" rx="2.5" ry="2.5" style="stroke:#000D19;stroke-width:0.5;" width="174" x="190.5" y="7"/><ellipse cx="205.5" cy="26.8945" fill="#ADD1B2" rx="11" ry="11" style="stroke:#181818;stroke-width:1.0;"/><path d="M208.4688,32.5352 Q207.8906,32.832 207.25,32.9727 Q206.6094,33.1289 205.9063,33.1289 Q203.4063,33.1289 202.0781,31.4883 Q200.7656,29.832 200.7656,26.707 Q200.7656,23.582 202.0781,21.9258 Q203.4063,20.2695 205.9063,20.2695 Q206.6094,20.2695 207.25,20.4258 Q207.9063,20.582 208.4688,20.8789 L208.4688,23.5977 Q207.8438,23.0195 207.25,22.7539 Q206.6563,22.4727 206.0313,22.4727 Q204.6875,22.4727 204,23.5508 Q203.3125,24.6133 203.3125,26.707 Q203.3125,28.8008 204,29.8789 Q204.6875,30.9414 206.0313,30.9414 Q206.6563,30.9414 207.25,30.6758 Q207.8438,30.3945 208.4688,29.8164 L208.4688,32.5352 Z " fill="#000000"/><text fill="#D9B8FF" font-family="Helvetica" font-size="17" lengthAdjust="spacing" textLength="132" x="224.5" y="32.7798">gcp_vpn_tunnel</text></g><!--link gcp_network to gcp_vpn_gateway--><g id="link_gcp_network_gcp_vpn_gateway"><path codeLine="30" d="M100.86,47.22 C116.7,63.02 139.16,85.43 156.02,102.26 " fill="none" id="gcp_network-to-gcp_vpn_gateway" style="stroke:#1A83AF;stroke-width:2.0;"/><polygon fill="#1A83AF" points="159.18,105.41,155.663,96.2105,155.6516,101.8673,149.9948,101.8559,159.18,105.41" style="stroke:#1A83AF;stroke-width:2.0;"/></g><!--link gcp_vpn_gateway to gcp_interconnect_attachment--><g id="link_gcp_vpn_gateway_gcp_interconnect_attachment"><path codeLine="31" d="M179.5,147.01 C179.5,162.28 179.5,183.71 179.5,200.32 " fill="none" id="gcp_vpn_gateway-to-gcp_interconnect_attachment" style="stroke:#1A83AF;stroke-width:2.0;"/><polygon fill="#1A83AF" points="179.5,205.2,183.5,196.2,179.5,200.2,175.5,196.2,179.5,205.2" style="stroke:#1A83AF;stroke-width:2.0;"/></g><!--link gcp_vpn_tunnel to gcp_vpn_gateway--><g id="link_gcp_vpn_tunnel_gcp_vpn_gateway"><path codeLine="32" d="M258.14,47.22 C242.3,63.02 219.84,85.43 202.98,102.26 " fill="none" id="gcp_vpn_tunnel-to-gcp_vpn_gateway" style="stroke:#1A83AF;stroke-width:2.0;"/><polygon fill="#1A83AF" points="199.82,105.41,209.0052,101.8559,203.3484,101.8673,203.337,96.2105,199.82,105.41" style="stroke:#1A83AF;stroke-width:2.0;"/></g><!--SRC=[XP9FIyD04CNl-HGBFHSQWxQz2B5Gz5B4UXCfqzr9iYJP3RFJXYf-TzDMPTtqptNUZ_VU35DeXGBhXdUYndgDv29NQjC0GIrI8jlER6L93B8CicGSYdDh-2gmW1h58rPRP2qX95uBBKk3peaRJte0MUPaDqOTxPd0k4v2mnurgy2vb9dqUiFebL7JzIJBGZ8q7IGg7jzX3xEaa7wGqMYaucc8N8swkFSViTGVA6B_Q0lBsAlPYpXG5rlk2QzaRz5V_Mp7Pr1AcrpSUhENOoSoIF_comAKRVTq1fNpOnmZeULTWxFULZYTg6ny4duw1ylzvKGkcvKs7IsjCIXv1SmWYxfx3l4PVNcKGMujbS5qsvXL3emjx4uelEbCguFWMmpV1d4wITBv-_0-T8b2rnvyfcuKX5uA-GO0]--></g></svg>

<svg xmlns="http://www.w3.org/2000/svg" width="371" height="252" preserveAspectRatio="none" style="width:371px;height:252px"><rect width="291" height="39.789" x="34" y="206.58" fill="#3D176E" rx="2.5" ry="2.5" style="stroke:#000d19;stroke-width:.5"/><circle cx="49" cy="226.475" r="11" fill="#ADD1B2" style="stroke:#181818;stroke-width:1"/><path d="M51.969 232.115q-.578.297-1.219.438-.64.156-1.344.156-2.5 0-3.828-1.64-1.312-1.657-1.312-4.782t1.312-4.781q1.328-1.656 3.828-1.656.703 0 1.344.156.656.156 1.219.453v2.719q-.625-.578-1.219-.844-.594-.281-1.219-.281-1.343 0-2.031 1.078-.688 1.062-.688 3.156 0 2.094.688 3.172.688 1.062 2.031 1.062.625 0 1.219-.265.594-.281 1.219-.86v2.72Z"/><text x="68" y="232.36" fill="#D9B8FF" font-family="Helvetica" font-size="17" textLength="249">gcp_interconnect_attachment</text><rect width="149" height="39.789" x="7" y="7" fill="#3D176E" rx="2.5" ry="2.5" style="stroke:#000d19;stroke-width:.5"/><circle cx="22" cy="26.895" r="11" fill="#ADD1B2" style="stroke:#181818;stroke-width:1"/><path d="M24.969 32.535q-.578.297-1.219.438-.64.156-1.344.156-2.5 0-3.828-1.64-1.312-1.657-1.312-4.782t1.312-4.781q1.328-1.656 3.828-1.656.703 0 1.344.156.656.156 1.219.453v2.719q-.625-.578-1.219-.844-.594-.281-1.219-.281-1.343 0-2.031 1.078-.688 1.062-.688 3.156 0 2.094.688 3.172.688 1.062 2.031 1.062.625 0 1.219-.265.594-.281 1.219-.86v2.72Z"/><text x="41" y="32.78" fill="#D9B8FF" font-family="Helvetica" font-size="17" textLength="107">gcp_network</text><rect width="191" height="39.789" x="84" y="106.79" fill="#3D176E" rx="2.5" ry="2.5" style="stroke:#000d19;stroke-width:.5"/><circle cx="99" cy="126.684" r="11" fill="#ADD1B2" style="stroke:#181818;stroke-width:1"/><path d="M101.969 132.325q-.578.297-1.219.438-.64.156-1.344.156-2.5 0-3.828-1.64-1.312-1.657-1.312-4.782t1.312-4.781q1.328-1.656 3.828-1.656.703 0 1.344.156.656.156 1.219.453v2.719q-.625-.579-1.219-.844-.594-.281-1.219-.281-1.344 0-2.031 1.078-.688 1.062-.688 3.156 0 2.094.688 3.172.688 1.062 2.031 1.062.625 0 1.219-.265.594-.281 1.219-.86v2.72Z"/><text x="118" y="132.57" fill="#D9B8FF" font-family="Helvetica" font-size="17" textLength="149">gcp_vpn_gateway</text><rect width="174" height="39.789" x="190.5" y="7" fill="#3D176E" rx="2.5" ry="2.5" style="stroke:#000d19;stroke-width:.5"/><circle cx="205.5" cy="26.895" r="11" fill="#ADD1B2" style="stroke:#181818;stroke-width:1"/><path d="M208.469 32.535q-.578.297-1.219.438-.64.156-1.344.156-2.5 0-3.828-1.64-1.312-1.657-1.312-4.782t1.312-4.781q1.328-1.656 3.828-1.656.703 0 1.344.156.656.156 1.219.453v2.719q-.625-.578-1.219-.844-.594-.281-1.219-.281-1.344 0-2.031 1.078-.688 1.062-.688 3.156 0 2.094.688 3.172.688 1.062 2.031 1.062.625 0 1.219-.265.594-.281 1.219-.86v2.72Z"/><text x="224.5" y="32.78" fill="#D9B8FF" font-family="Helvetica" font-size="17" textLength="132">gcp_vpn_tunnel</text><path fill="none" d="M100.86 47.22c15.84 15.8 38.3 38.21 55.16 55.04" style="stroke:#1a83af;stroke-width:2"/><path fill="#1A83AF" d="m159.18 105.41-3.517-9.2-.011 5.657-5.657-.011 9.185 3.554z" style="stroke:#1a83af;stroke-width:2"/><path fill="none" d="M179.5 147.01v53.31" style="stroke:#1a83af;stroke-width:2"/><path fill="#1A83AF" d="m179.5 205.2 4-9-4 4-4-4 4 9z" style="stroke:#1a83af;stroke-width:2"/><path fill="none" d="M258.14 47.22c-15.84 15.8-38.3 38.21-55.16 55.04" style="stroke:#1a83af;stroke-width:2"/><path fill="#1A83AF" d="m199.82 105.41 9.185-3.554-5.657.011-.011-5.657-3.517 9.2z" style="stroke:#1a83af;stroke-width:2"/></svg>
